X: 26902
T: Minstrel's, The
R: jig
M: 6/8
K: Edorian
E2F|:GFE BGE|dcB e2f|edB BAF|ABA DEF|
GFE ~B2c|dcB e2f|edB AFD|1 EFE E2F:|2 EFE E3||
|:~g3 eBG|~f2e dAF|gfe ~f2e|dBG AFD|
~g3 eBG|~f2e dAF|GBd AFD|1 EFE E3:|2 EFE E2F||

